img/domains.svg

<svg xmlns="http://www.w3.org/2000/svg" width="24" height="24">
  <path d="M17.9 17.39A2 2 0 0016 16h-1v-3a1 1 0 00-1-1H8v-2h2a1 1 0 001-1V7h2a2 2 0 002-2v-.41a7.98 7.98 0 012.9 12.8M11 19.93a7.99 7.99 0 01-6.79-9.72L9 15v1a2 2 0 002 2m1-16A10 10 0 002 12a10 10 0 0010 10 10 10 0 0010-10A10 10 0 0012 2z"/>
</svg>

<?xml version="1.0" encoding="UTF-8"?><!DOCTYPE svg PUBLIC "-//W3C//DTD SVG 1.1//EN" "http://www.w3.org/Graphics/SVG/1.1/DTD/svg11.dtd"><svg xmlns="http://www.w3.org/2000/svg" xmlns:xlink="http://www.w3.org/1999/xlink" version="1.1" width="24" height="24" viewBox="0 0 24 24"><path d="M17.9,17.39C17.64,16.59 16.89,16 16,16H15V13A1,1 0 0,0 14,12H8V10H10A1,1 0 0,0 11,9V7H13A2,2 0 0,0 15,5V4.59C17.93,5.77 20,8.64 20,12C20,14.08 19.2,15.97 17.9,17.39M11,19.93C7.05,19.44 4,16.08 4,12C4,11.38 4.08,10.78 4.21,10.21L9,15V16A2,2 0 0,0 11,18M12,2A10,10 0 0,0 2,12A10,10 0 0,0 12,22A10,10 0 0,0 22,12A10,10 0 0,0 12,2Z" /></svg>
